X:412
T:An Phis Fliuch
T:Choice Wife, The
M:9/8
L:1/8
R:slip jig
K:D
|:"D"FGA AFA "C"=c2A|"G"BAG "D"FAF GED|\
"D"FGA AFA d2 A|"D"dfe dcA GED::
"D"dcd ege "C"=c2A|"D"dcd faf "G"g3|"D"afa ged "C"=c2A|"G"BAG "D"FAF GED::
"D"FGA AFd AFd|AFd AFG "G"GED|"D"FGA AFA "C"=c2A|"G"BAG "D"F2F GED::
"D"DED DED "C"=c3|=c2B cAG "G"GED|"D"DED DED d2A|"D"dfe dcA GED:|
